!!!OTL: Hongjun kaidao loushanguan
!!!ARE: Asia, China,ÿGuizhou Zunyi
!! II, 150, 1)
!!!SCT: C1872
!!!YEM: Copyright 1995, estate of Helmut Schaffrath.
**kern
*ICvox
*Ivox
*M2/4
*k[]
*C:
{8g
8g
4a
=1
8cc
8g
4cc}
=2
{8g
8cc
8cc
8a
=3
8g
8a
4cc}
=4
{8a
8cc
8dd
16cc
16a
=5
8dd
16cc
16a
4dd}
=6
{8cc
16a
16cc
8dd
8dd
=7
8a
16dd
16cc
4a}
=8
{8cc
16a
16cc
4dd
=9
8a
16dd
16cc
4a
=10
4g
4r}
==
!!!AGN: Xiaodiao, Huadeng diao
!!!AMT: simple duple
!!!AIN: vox
!!!EED: Helmut Schaffrath
!!!EEV: 1.0
*-
